mtpixy/data/data/icons/default.svg

<?xml version="1.0" encoding="UTF-8" standalone="no"?>
<svg
   xmlns:dc="http://purl.org/dc/elements/1.1/"
   xmlns:cc="http://creativecommons.org/ns#"
   xmlns:rdf="http://www.w3.org/1999/02/22-rdf-syntax-ns#"
   xmlns:svg="http://www.w3.org/2000/svg"
   xmlns="http://www.w3.org/2000/svg"
   xmlns:sodipodi="http://sodipodi.sourceforge.net/DTD/sodipodi-0.dtd"
   xmlns:inkscape="http://www.inkscape.org/namespaces/inkscape"
   version="1.0"
   x="0.0000000"
   y="0.0000000"
   width="144"
   height="96"
   id="svg1"
   sodipodi:version="0.32"
   inkscape:version="0.48.5 r10040"
   sodipodi:docname="default.svg"
   inkscape:output_extension="org.inkscape.output.svg.inkscape"
   inkscape:export-xdpi="90"
   inkscape:export-ydpi="90">
  <sodipodi:namedview
     id="base"
     pagecolor="#ffffff"
     bordercolor="#666666"
     borderopacity="1.0"
     inkscape:pageopacity="0"
     inkscape:pageshadow="2"
     inkscape:zoom="8"
     inkscape:cx="106.55709"
     inkscape:cy="44.366784"
     inkscape:window-width="2560"
     inkscape:window-height="1368"
     inkscape:window-x="0"
     inkscape:window-y="0"
     showgrid="true"
     inkscape:window-maximized="1"
     showguides="false"
     inkscape:snap-from-guide="false"
     inkscape:current-layer="layer1"
     fit-margin-top="0"
     fit-margin-left="0"
     fit-margin-right="0"
     fit-margin-bottom="0"
     gridtolerance="10000">
    <inkscape:grid
       type="xygrid"
       id="grid3016"
       empspacing="24"
       visible="true"
       enabled="true"
       snapvisiblegridlinesonly="true"
       spacingx="1px"
       spacingy="1px"
       originx="0px"
       originy="0px" />
  </sodipodi:namedview>
  <g
     inkscape:groupmode="layer"
     id="layer1"
     inkscape:label="Background"
     style="display:none"
     sodipodi:insensitive="true">
    <rect
       style="fill:#e2a2a7;fill-opacity:1;stroke:#000000;stroke-width:1;stroke-linecap:butt;stroke-linejoin:round;stroke-miterlimit:4;stroke-opacity:1;stroke-dasharray:none"
       id="rect2997"
       width="192"
       height="144"
       x="-24"
       y="-24"
       ry="0.5" />
  </g>
  <g
     inkscape:groupmode="layer"
     id="layer2"
     inkscape:label="Foreground">
    <rect
       style="fill:#000000;stroke:none"
       id="logo_outline"
       width="48"
       height="48"
       x="0"
       y="0" />
    <rect
       style="fill:#008000;fill-opacity:1;stroke:none"
       id="logo_centre_dark"
       width="44"
       height="44"
       x="2"
       y="2" />
    <rect
       style="fill:#00c000;fill-opacity:1;stroke:none"
       id="logo_centre_light"
       width="30"
       height="30"
       x="9"
       y="9" />
    <rect
       style="fill:#000000;fill-opacity:1;stroke:none"
       id="logo_centre_black"
       width="18"
       height="18"
       x="15"
       y="15" />
    <rect
       style="fill:#ffffff;fill-opacity:1;stroke:none"
       id="logo_pixel_2"
       width="7"
       height="7"
       x="24"
       y="17" />
    <rect
       style="fill:#ffffff;fill-opacity:1;stroke:none"
       id="logo_pixel_1"
       width="7"
       height="7"
       x="17"
       y="24" />
    <path
       style="fill:#ffffff;fill-opacity:1;stroke:#000000;stroke-linecap:round;stroke-linejoin:round;stroke-opacity:1"
       d="M 1,95 6,85 18,73 23,78 11,90 z"
       id="pencil_shape" />
    <path
       style="fill:none;stroke:#000000;stroke-width:1px;stroke-linecap:butt;stroke-linejoin:miter;stroke-opacity:1"
       d="M 6,85 11,90"
       id="pencil_band" />
    <path
       style="fill:#ffffff;fill-opacity:1;stroke:#000000;stroke-width:1px;stroke-linecap:butt;stroke-linejoin:round;stroke-opacity:1"
       d="M 52.30761,82.499998 C 50.8934,79.671571 58.67157,71.893397 61.5,73.30761 L 70.69239,82.499998 C 67.86396,82.499998 61.5,88.863959 61.5,91.692386 z"
       id="flood_pot_back" />
    <path
       style="fill:#ffffff;fill-opacity:1;stroke:#000000;stroke-width:1px;stroke-linecap:butt;stroke-linejoin:round;stroke-opacity:1"
       d="M 61.5,91.692386 C 65.03553,92.399498 71.39949,86.035532 70.69239,82.499998 L 61.5,73.30761 C 62.20711,76.843144 55.84315,83.207105 52.30761,82.499998 z"
       id="flood_pot_front" />
    <path
       style="fill:#ffffff;fill-opacity:1;stroke:#000000;stroke-width:1px;stroke-linecap:butt;stroke-linejoin:round;stroke-opacity:1"
       d="M 51,94 C 48,94 48,85.5 53,79.5 L 58.5,79.5 C 57.12145,80.734995 56.02228,82.210533 54,84 53.89648,88.535318 52.92524,93.080867 51,94 z"
       id="flood_paint" />
    <rect
       style="fill:#ffffff;fill-opacity:1;stroke:#000000;stroke-width:1;stroke-linecap:butt;stroke-linejoin:round;stroke-miterlimit:4;stroke-opacity:1;stroke-dasharray:none"
       id="line"
       width="18"
       height="6"
       x="26.5"
       y="80.5" />
    <path
       style="fill:none;stroke:#000000;stroke-width:1px;stroke-linecap:butt;stroke-linejoin:miter;stroke-opacity:1"
       d="M 35.5,83 35.5,81"
       id="line_2" />
    <path
       style="fill:none;stroke:#000000;stroke-width:1px;stroke-linecap:butt;stroke-linejoin:miter;stroke-opacity:1"
       d="M 30.5,83 30.5,81"
       id="line_1" />
    <path
       style="fill:none;stroke:#000000;stroke-width:1px;stroke-linecap:butt;stroke-linejoin:miter;stroke-opacity:1"
       d="M 40.5,83 40.5,81"
       id="line_3" />
    <path
       style="fill:#ffffff;fill-opacity:1;stroke:#000000;stroke-width:1;stroke-linecap:butt;stroke-linejoin:round;stroke-miterlimit:4;stroke-opacity:1;stroke-dasharray:none;stroke-dashoffset:0"
       d="M 118,94 111,74 98,88 z"
       id="select_polygon" />
    <rect
       style="fill:#ffffff;fill-opacity:1;stroke:#000000;stroke-width:1;stroke-linecap:butt;stroke-linejoin:round;stroke-miterlimit:4;stroke-opacity:1;stroke-dasharray:none;stroke-dashoffset:0"
       id="select_rectangle"
       width="19"
       height="19"
       x="74.5"
       y="74.5" />
  </g>
</svg>

<?xml version="1.0" encoding="UTF-8"?>
<svg width="144" height="96" version="1.0" xmlns="http://www.w3.org/2000/svg">
	<path d="m1 95 5-10 12-12 5 5-12 12z" fill="#fff" stroke="#000" stroke-linecap="round" stroke-linejoin="round"/>
	<path d="m6 85 5 5" fill="none" stroke="#000" stroke-width="1px"/>
	<path d="m52.308 82.5c-1.4142-2.8284 6.364-10.607 9.1924-9.1924l9.1924 9.1924c-2.8284 0-9.1924 6.364-9.1924 9.1924z" fill="#fff" stroke="#000" stroke-linejoin="round" stroke-width="1px"/>
	<path d="m61.5 91.692c3.5355 0.70711 9.8995-5.6569 9.1924-9.1924l-9.1924-9.1924c0.70711 3.5355-5.6568 9.8995-9.1924 9.1924z" fill="#fff" stroke="#000" stroke-linejoin="round" stroke-width="1px"/>
	<path d="m51 94c-3 0-3-8.5 2-14.5h5.5c-1.3786 1.235-2.4777 2.7105-4.5 4.5-0.10352 4.5353-1.0748 9.0809-3 10z" fill="#fff" stroke="#000" stroke-linejoin="round" stroke-width="1px"/>
	<rect x="26.5" y="80.5" width="18" height="6" fill="#fff" stroke="#000" stroke-linejoin="round"/>
	<path d="m35.5 83v-2" fill="none" stroke="#000" stroke-width="1px"/>
	<path d="m30.5 83v-2" fill="none" stroke="#000" stroke-width="1px"/>
	<path d="m40.5 83v-2" fill="none" stroke="#000" stroke-width="1px"/>
	<path d="m118 94-7-20-13 14z" fill="#fff" stroke="#000" stroke-linejoin="round"/>
	<rect x="74.5" y="74.5" width="19" height="19" fill="#fff" stroke="#000" stroke-linejoin="round"/>
	<g transform="translate(3,3)">
		<rect x="-3" y="-3" width="48" height="48"/>
		<rect width="42" height="42" fill="#00b400"/>
		<rect x="9" y="9" width="24" height="24"/>
		<rect x="21" y="12" width="9" height="9" fill="#fff"/>
		<rect x="12" y="21" width="9" height="9" fill="#fff"/>
	</g>
</svg>
